X:339
T:OK Jig
M:6/8
L:1/8
C:© Paul Gitlitz 2012
N:For Oli and Kerri's Wedding
K:E
"B6"Bdg fed|"A6"cde gfe|"B6"Bdg fed|"A6"cde agf|!
"B6"Bdg fed|"A6"cde "F#m"fga|"B7"bga- aag|"F#m"fed "E"e2e:|!
|:"B7"dBB fBB|dBB agf|"A6"eAA cAA|eAA cfe|!
"G#m7"dBB fBB|dBB "F#m7"fga|"E"bga- "A"aag|"B7"fed "E"e2e:|!
|:"Harmony"FBd d2B|A2c e2c|FBd d2B|A2e e2c|!
FBd d2B|A2c cde|gef- ffe|dcB "E"E3:|!
|:FBB Bdd|Bff fed|cee aee|eAA eag|!
fdd Bdd|Bff cde|gef- ffe|dcB e3:|]
